X: 129018
T: The MERRY MONTH OF MAY
%R: jig
B: James Kerr "Merry Melodies" v.1 p.29 s.0 #18
Z: 2016 John Chambers <jc:trillian.mit.edu>
M: 6/8
L: 1/8
K: A
uE |\
vA2vA AGA | vB2vc ud2ue | vf2vf ecA | AGA BGE |\
A2A AGA | B2c d2e | f>ga edc | BAG A2 H||
G/A/ |\
vB2vB uB2uc | ded c2e | a2e a2e | c>BA e3 |\
B2B B2c | d>ed c2e | a2e a2e | efe dc"_D.C."B |]

%%sep 1 1 500
%%sep 1 1 500

